X: 1077
T: Amazing Grace
R: waltz
M: 3/4
K: Gmajor
V:1
DG|"G"G4 BA/G/|"G"B4 BA|"C"G4 E2|"G"D4 DG|
V:2
G2|D4 GE/D/|G4 DE|E4 G2|B4 GB|
V:1
"Em"G4 BA/G/|"A7" B4 AB|"Dsus" d6|"D/C"d4 Bd||
V:2
B4 GE/D/|E4 EG|G6|F4 GB||
V:1
"G"d4 BA/G/|"G"B4 BA|"C"G4 E2|"G"D4 DG|
V:2
B4 GE/D/|G4 DE|E4 G2|B4 GB|
V:1
"Em"G4 BA/G/|"A7"B4 "C/D"A2|"G" G6|"G"G4||
V:2
B4 GE/D/|E4 c2|B6|B4||

